X:1
T:Squalor
M:4/4
L:1/8
K:C
 G, G,| CB, CD E^D EF| G2 GG z2 AE| F2 FF z2 GD| E^D E2 z2 z G,| CB, CD E^D EF|\
 G2 GG z2 AE| F2 FF z2 GD| EE E2 z2 G, G,| CB, CD E^D EF| G2 GG z2 AE|\
 F2 FF z2 GD| E^D E2 z2 G, G,| CB, CD E^D EF| G2 GG z2 AE| F2 FF z2 GD|\
 EE E2 z2 CC| FF FG AA GF| GE C2 z2 z C| FF FG AA GF| GE C2 z2 B,C|\
 D2 z2 z4| z4 z2 z D| DD DD B B2 A-| AA G2 z F2 B,| C2 z2 z4| z4 z2||\


